icon/lg/whalar.svg

<?xml version="1.0" encoding="UTF-8"?>
<svg viewBox="0 0 512 103" version="1.1" xmlns="http://www.w3.org/2000/svg" preserveAspectRatio="xMidYMid" height="1em" width="1em">
  <g>
    <path d="M224.572872,28.6318423 L235.934902,28.6318423 L213.745615,84.8062555 L202.049571,84.8062555 L188.014552,41.9317676 L187.814085,41.9317676 L173.778774,84.8062555 L162.416744,84.8062555 L140.662289,28.6318423 L152.5588,28.6318423 L168.097613,71.5061841 L168.298372,71.5061841 L182.233157,28.6318423 L194.029435,28.6318423 L208.298819,71.5061841 L208.499286,71.5061841 L224.572872,28.6318423 Z M243.420557,7.61671851 L254.147581,7.61671851 L254.147581,37.0904633 L254.348048,37.0904633 C259.594669,29.270794 268.182892,26.6978338 276.336576,26.6978338 C289.837114,26.6978338 299.928838,32.4791407 299.928838,46.5141598 L299.928838,84.7770329 L289.202399,84.7770329 L289.202399,48.6529602 C289.202399,40.3990434 284.156245,35.6871951 272.59404,35.6871951 C262.836037,35.6871951 254.147581,41.3680641 254.147581,52.3957878 L254.147581,84.7770329 L243.420557,84.7770329 L243.420557,7.61671851 Z M312.853984,46.1763468 L312.853984,46.2099528 C314.230202,32.4394586 323.52227,26.9040082 339.778005,26.7000255 L341.351642,26.6969484 L341.351642,26.6969484 L342.622609,26.7201497 C342.835873,26.7260651 343.049785,26.7330353 343.264242,26.7411064 L344.556696,26.8031114 C344.772918,26.81577 344.989477,26.8296214 345.20627,26.8447118 L346.508997,26.9504881 C356.50532,27.881058 366.556313,31.6277276 366.556313,42.667592 L366.556313,72.876723 C366.556313,76.0847774 368.160633,77.6888047 371.369272,77.6888047 C372.538175,77.6888047 373.940859,77.5885712 375.109762,77.2545572 L375.109762,84.7732339 C372.538175,85.2077737 369.329536,85.4082405 366.755027,85.4082405 C361.275794,85.4082405 357.868441,83.904739 357.099888,77.5888635 C352.722346,83.3699658 342.29573,86.7115675 333.204587,86.7115675 C317.309175,86.7115675 311.895245,79.6162781 310.672804,73.0014795 L310.541375,72.1776803 C310.504539,71.90428 310.474524,71.632262 310.450877,71.3621742 L310.39858,70.5582495 C310.392895,70.4254098 310.388689,70.2931897 310.385904,70.1616576 L310.381754,69.7691942 C310.381754,60.3566573 315.398458,55.3299613 329.723486,52.9509674 L331.562906,52.6672576 C332.507167,52.532172 333.488487,52.407146 334.507914,52.2917555 L346.740484,51.0220345 L347.354463,50.9643161 L347.354463,50.9643161 L348.532373,50.8321041 L348.532373,50.8321041 L349.641138,50.6722083 C353.934044,49.96875 356.497902,48.4477472 356.497902,44.2716193 C356.497902,37.9377232 351.435822,35.788454 344.837214,35.220972 L343.58283,35.1324702 C343.371052,35.1205975 343.157988,35.1101107 342.943747,35.1009303 L341.645027,35.0608893 L341.645027,35.0608893 L340.323206,35.0483896 L340.323206,35.0483896 C331.199918,35.0483896 323.2806,37.6217297 322.947462,46.1763468 L312.853984,46.1763468 Z M356.462835,55.4331825 C355.393289,56.6361785 353.745785,57.3787567 350.993884,57.9579914 L349.745347,58.1971004 C349.525477,58.2355738 349.299588,58.2734304 349.067489,58.3107784 L347.598837,58.5296292 L347.598837,58.5296292 L345.97193,58.7414704 L345.97193,58.7414704 L333.873784,60.2452642 C325.419692,61.4147517 321.109362,63.4530264 321.109362,69.4682016 C321.109362,74.714823 326.354815,78.3574172 334.174776,78.3574172 C346.272923,78.3574172 356.462835,72.0412495 356.462835,62.6178452 L356.462835,55.4331825 Z M382.438784,7.61671851 L393.166392,7.61671851 L393.166392,84.7770329 L382.438784,84.7770329 L382.438784,7.61671851 Z M406.135371,46.1763468 L406.135371,46.2099528 C407.511589,32.4394586 416.803657,26.9040082 433.059393,26.7000255 L434.63303,26.6969484 L434.63303,26.6969484 L435.903996,26.7201497 C436.11726,26.7260651 436.331172,26.7330353 436.54563,26.7411064 L437.838083,26.8031114 C438.054305,26.81577 438.270864,26.8296214 438.487657,26.8447118 L439.790384,26.9504881 C449.786707,27.881058 459.837701,31.6277276 459.837701,42.667592 L459.837701,72.876723 C459.837701,76.0847774 461.44202,77.6888047 464.647737,77.6888047 C465.819562,77.6888047 467.222246,77.5885712 468.391149,77.2545572 L468.391149,84.7732339 C465.819562,85.2077737 462.610923,85.4082405 460.036414,85.4082405 C454.557181,85.4082405 451.149828,83.904739 450.381275,77.5888635 C446.00081,83.3699658 435.577117,86.7115675 426.485974,86.7115675 C410.590562,86.7115675 405.176632,79.6162781 403.954191,73.0014795 L403.822762,72.1776803 C403.785926,71.90428 403.755911,71.632262 403.732264,71.3621742 L403.679967,70.5582495 C403.674283,70.4254098 403.670076,70.2931897 403.667291,70.1616576 L403.663141,69.7691942 C403.663141,60.3566573 408.677448,55.3299613 423.004195,52.9509674 L424.843851,52.6672576 C425.788242,52.532172 426.769708,52.407146 427.789301,52.2917555 L440.021871,51.0220345 L440.63585,50.9643161 L440.63585,50.9643161 L441.81376,50.8321041 L441.81376,50.8321041 L442.922525,50.6722083 C447.215431,49.96875 449.77929,48.4477472 449.77929,44.2716193 C449.77929,37.9377232 444.717209,35.788454 438.118602,35.220972 L436.864217,35.1324702 C436.652439,35.1205975 436.439375,35.1101107 436.225134,35.1009303 L434.926415,35.0608893 L434.926415,35.0608893 L433.604593,35.0483896 L433.604593,35.0483896 C424.481305,35.0483896 416.561987,37.6217297 416.228849,46.1763468 L406.135371,46.1763468 Z M449.744223,55.4331825 C448.674676,56.6361785 447.025874,57.3787567 444.273973,57.9579914 L443.025523,58.1971004 C442.805683,58.2355738 442.579832,58.2734304 442.347782,58.3107784 L440.87954,58.5296292 L440.87954,58.5296292 L439.253318,58.7414704 L439.253318,58.7414704 L427.155171,60.2452642 C418.701079,61.4147517 414.390749,63.4530264 414.390749,69.4682016 C414.390749,74.714823 419.636202,78.3574172 427.456163,78.3574172 C439.551388,78.3574172 449.744223,72.0412495 449.744223,62.6178452 L449.744223,55.4331825 Z M475.676337,28.6323976 L486.403945,28.6323976 L486.403945,38.9250566 L486.602659,38.9250566 C491.649398,30.035841 498.700805,26.6941517 505.886637,26.6941517 C508.560503,26.6941517 509.963186,26.7943852 512,27.3290706 L512,38.8914507 C509.329056,38.1562107 507.289321,37.8221966 504.381674,37.8221966 C493.756345,37.8221966 486.368878,44.1380721 486.368878,56.2686559 L486.368878,84.7732339 L475.644192,84.7732339 L475.644192,28.5989377 L475.676337,28.6323976 Z" fill="#090909"/>
    <path d="M107.942,48.568 L107.942447,75.5531105 C107.928445,75.8151016 107.097664,88.9146575 80.9579343,88.9146575 C54.5538751,88.9146575 53.9729303,101.69895 53.9729303,102.280187 L53.9729303,102.280187 L53.9720309,102.228781 C53.9393518,101.157891 52.8636185,88.9146575 26.9879555,88.9146575 C1.08130438,88.9146575 0.0217569093,77.3548107 0.000362854215,75.7364321 L0.000734115886,75.6115714 C0.00162910093,75.5705124 0.00302379277,75.5491276 0.00302379277,75.5491276 L0.00302379277,75.5491276 L0.00340673147,48.5683986 C0.0294525371,48.830384 1.45938567,61.9296535 26.9879555,61.9296535 C52.7745124,61.9296535 53.9729303,74.0967655 53.9729303,75.2951834 C53.9729303,74.387238 54.2634027,61.9296535 80.9579343,61.9296535 C107.133105,61.9296535 107.91836,49.0807209 107.941918,48.575158 L107.942,48.568 Z M107.943117,0.00398286696 L107.943015,27.0007412 C107.932437,27.5141948 107.403531,40.3505339 80.9582266,40.3505339 C54.7827727,40.3505339 53.997509,52.3449057 53.9739511,53.628119 L53.9732225,53.7157716 C53.9732225,53.1348268 53.3922777,40.3505339 26.9883354,40.3505339 C1.04790055,40.3505339 0.0173975782,28.7906113 0.000235293259,27.1722221 L0.000935680125,27.0473605 C0.00168884636,27.0165661 0.00269433613,26.9968385 0.00315000812,26.9888993 L0.00360854754,0.0158245452 C0.0141856561,0.529266884 0.543066065,13.3653254 26.9883354,13.3653254 C53.1636759,13.3653254 53.9489361,25.0866666 53.972494,26.618631 L53.97378,26.645997 C53.9954031,25.0505636 54.7975856,13.3653254 80.9582266,13.3653254 C107.385524,13.3653254 107.934775,0.265969975 107.943117,0.00398286696 Z" fill="#22CACE"/>
  </g>
</svg>

<svg width="512" height="103" xmlns="http://www.w3.org/2000/svg" preserveAspectRatio="xMidYMid"><path d="M224.573 28.632h11.362l-22.19 56.174H202.05l-14.035-42.874h-.2l-14.036 42.874h-11.362l-21.755-56.174h11.897l15.539 42.874h.2l13.935-42.874h11.796l14.27 42.874h.2l16.074-42.874ZM243.42 7.617h10.727V37.09h.2c5.247-7.82 13.835-10.392 21.989-10.392 13.5 0 23.592 5.781 23.592 19.816v38.263h-10.727V48.653c0-8.254-5.046-12.966-16.608-12.966-9.758 0-18.446 5.681-18.446 16.709v32.381H243.42V7.617Zm69.433 38.56v.033c1.376-13.77 10.668-19.306 26.924-19.51l1.574-.003 1.27.023.642.021 1.293.062.65.042 1.302.105c9.996.931 20.047 4.678 20.047 15.718v30.209c0 3.208 1.605 4.812 4.813 4.812 1.17 0 2.572-.1 3.74-.434v7.518c-2.57.435-5.78.635-8.354.635-5.48 0-8.887-1.503-9.655-7.82-4.378 5.782-14.804 9.124-23.895 9.124-15.896 0-21.31-7.096-22.532-13.71l-.132-.824a17.613 17.613 0 0 1-.09-.816l-.052-.804c-.006-.133-.01-.265-.013-.396l-.004-.393c0-9.412 5.016-14.439 19.341-16.818l1.84-.284c.944-.135 1.925-.26 2.945-.375l12.232-1.27.614-.058 1.178-.132 1.11-.16c4.292-.703 6.856-2.224 6.856-6.4 0-6.334-5.062-8.484-11.66-9.051l-1.255-.089a48.56 48.56 0 0 0-.64-.031l-1.298-.04-1.322-.013c-9.123 0-17.042 2.574-17.376 11.128h-10.093Zm43.609 9.256c-1.07 1.203-2.717 1.946-5.47 2.525l-1.248.24c-.22.038-.445.075-.678.113l-1.468.219-1.627.211-12.098 1.504c-8.454 1.17-12.765 3.208-12.765 9.223 0 5.247 5.246 8.89 13.066 8.89 12.098 0 22.288-6.317 22.288-15.74v-7.185Zm25.976-47.816h10.727v77.16H382.44V7.617Zm23.696 38.56v.033c1.377-13.77 10.669-19.306 26.924-19.51l1.574-.003 1.271.023.642.021 1.292.062.65.042 1.302.105c9.997.931 20.048 4.678 20.048 15.718v30.209c0 3.208 1.604 4.812 4.81 4.812 1.172 0 2.574-.1 3.743-.434v7.518c-2.571.435-5.78.635-8.355.635-5.479 0-8.886-1.503-9.655-7.82-4.38 5.782-14.804 9.124-23.895 9.124-15.895 0-21.31-7.096-22.532-13.71l-.131-.824a17.613 17.613 0 0 1-.09-.816l-.053-.804c-.006-.133-.01-.265-.013-.396l-.004-.393c0-9.412 5.014-14.439 19.341-16.818l1.84-.284c.944-.135 1.926-.26 2.945-.375l12.233-1.27.614-.058 1.178-.132 1.109-.16c4.292-.703 6.856-2.224 6.856-6.4 0-6.334-5.062-8.484-11.66-9.051l-1.255-.089a48.56 48.56 0 0 0-.639-.031l-1.299-.04-1.321-.013c-9.124 0-17.043 2.574-17.376 11.128h-10.094Zm43.61 9.256c-1.07 1.203-2.72 1.946-5.471 2.525l-1.248.24c-.22.038-.446.075-.678.113l-1.468.219-1.627.211-12.098 1.504c-8.454 1.17-12.764 3.208-12.764 9.223 0 5.247 5.245 8.89 13.065 8.89 12.095 0 22.288-6.317 22.288-15.74v-7.185Zm25.931-26.8h10.728v10.292h.199c5.046-8.89 12.098-12.23 19.284-12.23 2.674 0 4.076.1 6.113.634v11.562c-2.67-.735-4.71-1.069-7.618-1.069-10.626 0-18.013 6.316-18.013 18.447v28.504h-10.725V28.6l.032.033Z" fill="#090909"/><path d="M107.942 48.568v26.985c-.014.262-.844 13.362-26.984 13.362-26.404 0-26.985 12.784-26.985 13.365l-.001-.051c-.033-1.071-1.108-13.314-26.984-13.314C1.081 88.915.022 77.355 0 75.736v-.124l.003-.063V48.57c.026.261 1.456 13.36 26.985 13.36 25.787 0 26.985 12.168 26.985 13.366 0-.908.29-13.365 26.985-13.365 26.175 0 26.96-12.85 26.984-13.355v-.007Zm.001-48.564v26.997c-.01.513-.54 13.35-26.985 13.35-26.175 0-26.96 11.994-26.984 13.277v.088c0-.581-.582-13.365-26.986-13.365C1.048 40.35.018 28.79 0 27.172v-.125l.003-.058V.016c.011.513.54 13.35 26.985 13.35 26.176 0 26.96 11.72 26.984 13.253l.002.027c.021-1.595.824-13.28 26.984-13.28 26.428 0 26.977-13.1 26.985-13.362Z" fill="#22CACE"/></svg>
